themes/camp/images/about.svg

<?xml version="1.0" encoding="UTF-8" standalone="no"?>
<svg width="23px" height="34px" viewBox="0 0 23 34" version="1.1" xmlns="http://www.w3.org/2000/svg" xmlns:xlink="http://www.w3.org/1999/xlink">
    <!-- Generator: Sketch 43.2 (39069) - http://www.bohemiancoding.com/sketch -->
    <title>about</title>
    <desc>Created with Sketch.</desc>
    <defs></defs>
    <g id="Page-1" stroke="none" stroke-width="1" fill="none" fill-rule="evenodd">
        <g id="homepage" transform="translate(-934.000000, -75.000000)" fill="#FF744A">
            <g id="nav-bar">
                <g id="about" transform="translate(934.000000, 75.000000)">
                    <path d="M19,24 L12.2767697,24 L8.36825965,24 L7,24 L7,4 L19,4 L19,24 Z M21.0066733,0 L5.32018893,0 C5.23896087,0 5.16122113,0.0146861658 5.08248473,0.023801717 C5.00374832,0.0146861658 4.92600858,0 4.84478052,0 L1.99332669,0 C0.892512025,0 0,0.906997342 0,2.02567804 L0,26.1778373 C0,27.296518 0.892512025,28.2035154 1.99332669,28.2035154 L4.84478052,28.2035154 C4.92600858,28.2035154 5.00374832,28.1888292 5.08248473,28.1792072 C5.16122113,28.1888292 5.23896087,28.2035154 5.32018893,28.2035154 L6.65422282,28.2035154 L6.65422282,31.974315 C6.65422282,32.8666262 7.22929757,33.6541085 8.06898644,33.9128889 C8.90817697,34.1711629 9.81763227,33.8419902 10.3050006,33.0995792 L10.5526715,32.7228031 L10.8008407,33.0995792 C11.1770811,33.6728461 11.804979,33.9999931 12.4582918,33.9999931 C12.6506478,33.9999931 12.8454955,33.97214 13.0368549,33.9128889 C13.8765437,33.6541085 14.4516185,32.8666262 14.4516185,31.974315 L14.4516185,28.2035154 L21.0066733,28.2035154 C22.107488,28.2035154 23,27.296518 23,26.1778373 L23,2.02567804 C23,0.906997342 22.107488,0 21.0066733,0 L21.0066733,0 Z"></path>
                </g>
            </g>
        </g>
    </g>
</svg>

<svg width="23" height="34" viewBox="0 0 23 34" xmlns="http://www.w3.org/2000/svg"><title>about</title><path d="M19 24H7V4h12v20zm2.007-24H5.32c-.081 0-.159.015-.238.024C5.004.014 4.926 0 4.845 0H1.993C.893 0 0 .907 0 2.026v24.152c0 1.119.893 2.026 1.993 2.026h2.852c.081 0 .159-.015.237-.025.08.01.157.025.238.025h1.334v3.77c0 .893.575 1.68 1.415 1.939a1.978 1.978 0 0 0 2.236-.813l.248-.377.248.377a1.984 1.984 0 0 0 2.236.813 2.023 2.023 0 0 0 1.415-1.939v-3.77h6.555c1.1 0 1.993-.907 1.993-2.026V2.026C23 .907 22.107 0 21.007 0z" fill="#FF744A" fill-rule="evenodd"/></svg>
